X: 2
T: Ironlegs
R: hornpipe
M: 4/4
L: 1/8
K: Dmaj
|:AG|F2AF E2AG|FGEF D2A2|B2c2 d2ed|cdBc A2AG|
F2AF E2AG|FGEF D2A2|Bcde fedc|d2dc d2:|
|:e|fgfg efef|fgfg efef|dede cdcd|dede cdcd|
ABAB GAGA|ABAB GAGA|Bcde fedc|d2dc d2:| 